X:212
T: ES LEBEN DIE SOLDATEN
N: E1351
O: Europa, Mitteleuropa, Deutschland
R: Staende -, Soldaten -, Kriegs - Lied
M: 2/4
L: 1/16
K: Eb
EG | B3BB2G2 | c2B2z2
EG | B3BcBAG | G2F2z2
EG | B2G2AGAB | G4z2
ec | B3GBAGF | E
BBBBGAF | EBBBBG
ec | B3GBAGF | E4z2

